src/img/icons/manage-accounts.svg

<svg width="32" height="32" viewBox="0 0 32 32" fill="none" xmlns="http://www.w3.org/2000/svg">
<path d="M13.4334 14.2999C11.9661 14.2999 10.7409 13.8101 9.75792 12.8304C8.77491 11.8507 8.2834 10.6239 8.2834 9.14997C8.2834 7.68269 8.77491 6.45754 9.75792 5.47452C10.7409 4.49151 11.9661 4 13.4334 4C14.9007 4 16.1258 4.49151 17.1088 5.47452C18.0918 6.45754 18.5833 7.68269 18.5833 9.14997C18.5833 10.6239 18.0918 11.8507 17.1088 12.8304C16.1258 13.8101 14.9007 14.2999 13.4334 14.2999ZM2 23.9897V22.8765C2 22.0853 2.20148 21.3774 2.60444 20.7529C3.00741 20.1284 3.57463 19.6403 4.30611 19.2887C5.68218 18.6286 7.10259 18.1087 8.56733 17.7288C10.0321 17.349 11.5387 17.159 13.0873 17.159H13.3072C13.5788 17.159 13.8064 17.2517 13.9898 17.4369C14.1732 17.6218 14.265 17.8471 14.265 18.1126C14.265 18.3844 14.1732 18.6124 13.9898 18.7963C13.8064 18.9805 13.5788 19.0726 13.3072 19.0726H13.0873C11.6848 19.0726 10.3201 19.2398 8.99303 19.5742C7.666 19.9088 6.38127 20.3989 5.13884 21.0445C4.79101 21.2322 4.5001 21.4863 4.26609 21.8067C4.03235 22.1274 3.91547 22.4837 3.91547 22.8757V24.0191H13.3228C13.5945 24.0191 13.822 24.1113 14.0054 24.2958C14.1889 24.4802 14.2806 24.7089 14.2806 24.9818C14.2806 25.2546 14.1889 25.4816 14.0054 25.6628C13.822 25.844 13.5945 25.9345 13.3228 25.9345H3.94482C3.40897 25.9345 2.95088 25.7444 2.57053 25.364C2.19018 24.9837 2 24.5256 2 23.9897ZM23.143 26.4231L22.9425 24.9993C22.5139 24.8918 22.0963 24.727 21.6898 24.505C21.2833 24.2827 20.9302 24.0165 20.6307 23.7066L19.3261 24.0972C19.1488 24.1521 18.9788 24.1462 18.8162 24.0797C18.6536 24.0133 18.5316 23.9046 18.4503 23.7534L18.2826 23.476C18.179 23.3085 18.1411 23.133 18.1691 22.9493C18.197 22.7658 18.282 22.6107 18.424 22.4839L19.5369 21.5331C19.434 21.2035 19.3825 20.8231 19.3825 20.3916C19.3825 19.9605 19.434 19.5768 19.5369 19.2407L18.4385 18.2605C18.296 18.1484 18.2085 18.0023 18.1759 17.8222C18.1434 17.642 18.1778 17.4728 18.2792 17.3145L18.4484 16.9902C18.5465 16.8357 18.6728 16.7286 18.8273 16.6689C18.982 16.6095 19.1479 16.6071 19.325 16.6617L20.6307 17.0626C20.9206 16.7458 21.2712 16.4788 21.6825 16.2615C22.0939 16.0443 22.5139 15.8819 22.9425 15.7745L23.143 14.3525C23.1803 14.1363 23.2758 13.9632 23.4296 13.8331C23.583 13.7032 23.7578 13.6383 23.954 13.6383H24.2139C24.41 13.6383 24.5865 13.706 24.7433 13.8415C24.9003 13.9766 24.9942 14.1497 25.0249 14.3605L25.2204 15.7745C25.6427 15.8819 26.0595 16.0457 26.4708 16.2657C26.8822 16.4855 27.2361 16.753 27.5326 17.0683L28.8067 16.6678C28.9891 16.6142 29.1596 16.6198 29.3181 16.6846C29.4767 16.7494 29.6028 16.8594 29.6966 17.0146L29.8719 17.2962C29.9748 17.4655 30.01 17.6389 29.9775 17.8165C29.9449 17.9938 29.8573 18.147 29.7145 18.2761L28.6161 19.2464C28.7256 19.5818 28.7804 19.9653 28.7804 20.397C28.7804 20.8286 28.7256 21.2073 28.6161 21.5331L29.7294 22.4839C29.8719 22.596 29.9587 22.7462 29.9897 22.9344C30.0206 23.1227 29.982 23.2928 29.8738 23.4447L29.705 23.7691C29.6155 23.9235 29.4955 24.0305 29.3448 24.09C29.1939 24.1497 29.0299 24.1521 28.8528 24.0972L27.5326 23.7066C27.2265 24.0165 26.8701 24.2827 26.4636 24.505C26.0571 24.727 25.6427 24.8918 25.2204 24.9993L25.0249 26.4212C24.9942 26.6374 24.9003 26.8106 24.7433 26.9407C24.5865 27.0705 24.41 27.1354 24.2139 27.1354H23.954C23.7578 27.1354 23.583 27.0678 23.4296 26.9327C23.2758 26.7972 23.1803 26.6274 23.143 26.4231ZM24.0706 23.2942C24.9134 23.2942 25.6076 23.0193 26.1534 22.4695C26.6989 21.9196 26.9716 21.2267 26.9716 20.3905C26.9716 19.5477 26.6984 18.8535 26.1518 18.3077C25.6053 17.7622 24.9107 17.4895 24.0679 17.4895C23.2318 17.4895 22.5393 17.7627 21.9905 18.3092C21.4414 18.8558 21.1669 19.5504 21.1669 20.3932C21.1669 21.2293 21.4418 21.9218 21.9916 22.4706C22.5414 23.0197 23.2344 23.2942 24.0706 23.2942ZM13.4334 12.3845C14.3473 12.3845 15.1148 12.0755 15.7361 11.4576C16.3573 10.8397 16.6679 10.0705 16.6679 9.14997C16.6679 8.23606 16.3573 7.4685 15.7361 6.84729C15.1148 6.22608 14.3473 5.91547 13.4334 5.91547C12.5195 5.91547 11.7519 6.22608 11.1307 6.84729C10.5095 7.4685 10.1989 8.23606 10.1989 9.14997C10.1989 10.0705 10.5095 10.8397 11.1307 11.4576C11.7519 12.0755 12.5195 12.3845 13.4334 12.3845Z" fill="#131212"/>
</svg>

<svg xmlns="http://www.w3.org/2000/svg" viewBox="0 0 32 32">
  <path fill="currentColor" d="M13.433 14.3c-1.467 0-2.692-.49-3.675-1.47-.983-.98-1.475-2.206-1.475-3.68 0-1.467.492-2.692 1.475-3.675C10.74 4.492 11.966 4 13.433 4c1.468 0 2.693.492 3.676 1.475.983.983 1.474 2.208 1.474 3.675 0 1.474-.491 2.7-1.474 3.68S14.9 14.3 13.433 14.3ZM2 23.99v-1.113c0-.792.201-1.5.604-2.124.403-.625.97-1.113 1.702-1.464a23.432 23.432 0 0 1 4.261-1.56 17.93 17.93 0 0 1 4.52-.57h.22c.272 0 .5.093.683.278.183.185.275.41.275.676a.93.93 0 0 1-.275.683.925.925 0 0 1-.683.277h-.22a16.71 16.71 0 0 0-4.094.501 17.745 17.745 0 0 0-3.854 1.47 2.593 2.593 0 0 0-.873.763c-.234.32-.35.677-.35 1.069v1.143h9.407c.271 0 .499.092.682.277a.934.934 0 0 1 .276.686c0 .273-.092.5-.276.68a.933.933 0 0 1-.682.273H3.945a1.87 1.87 0 0 1-1.374-.571A1.874 1.874 0 0 1 2 23.99Zm21.143 2.433-.2-1.424a5.295 5.295 0 0 1-1.253-.494 4.388 4.388 0 0 1-1.06-.798l-1.304.39a.735.735 0 0 1-.876-.344l-.167-.277a.761.761 0 0 1 .141-.992l1.113-.95a3.835 3.835 0 0 1-.154-1.142c0-.431.051-.815.154-1.151l-1.098-.98a.698.698 0 0 1-.263-.439.685.685 0 0 1 .103-.508l.17-.324a.776.776 0 0 1 .378-.321.743.743 0 0 1 .498-.007l1.306.4c.29-.316.64-.583 1.052-.8a5.62 5.62 0 0 1 1.26-.488l.2-1.421a.843.843 0 0 1 .287-.52.789.789 0 0 1 .524-.195h.26c.196 0 .373.068.53.204.156.135.25.308.28.518l.196 1.415c.423.107.84.27 1.25.49.412.22.766.488 1.063.803l1.274-.4a.754.754 0 0 1 .89.347l.175.281c.103.17.138.343.105.52a.804.804 0 0 1-.262.46l-1.099.97c.11.336.164.72.164 1.151 0 .432-.054.81-.164 1.136l1.113.95c.143.113.23.263.26.451a.662.662 0 0 1-.115.51l-.169.325a.716.716 0 0 1-.36.321.723.723 0 0 1-.492.007l-1.32-.39a4.56 4.56 0 0 1-1.07.798 5.29 5.29 0 0 1-1.243.494l-.195 1.422a.794.794 0 0 1-.282.52.809.809 0 0 1-.53.194h-.259a.771.771 0 0 1-.524-.202.868.868 0 0 1-.287-.51Zm.928-3.129c.842 0 1.537-.275 2.082-.825.546-.55.819-1.242.819-2.079 0-.842-.274-1.537-.82-2.082-.547-.546-1.241-.819-2.084-.819-.836 0-1.529.274-2.078.82-.549.547-.823 1.241-.823 2.084 0 .836.275 1.529.825 2.078.55.549 1.242.823 2.079.823Zm-10.638-10.91c.914 0 1.682-.309 2.303-.926.621-.618.932-1.388.932-2.308 0-.914-.31-1.682-.932-2.303-.621-.62-1.389-.932-2.303-.932-.913 0-1.681.311-2.302.932-.622.621-.932 1.39-.932 2.303 0 .92.31 1.69.932 2.308.62.617 1.389.926 2.302.926Z"/>
</svg>
